assets/icons/bowtie/1.22/uE623-dashboard.svg

<svg xmlns="http://www.w3.org/2000/svg" viewBox="0 0 448 448" enable-background="new 0 0 448 448"><path d="M0 0v448h448v-448h-448zm32 32h224v256h-224v-256zm0 384v-96h128v96h-128zm384 0h-224v-96h224v96zm0-128h-128v-128h128v128zm0-160h-128v-96h128v96z"/></svg>

<svg xmlns="http://www.w3.org/2000/svg" viewBox="0 0 448 448"><path d="M0 0v448h448V0H0zm32 32h224v256H32V32zm0 384v-96h128v96H32zm384 0H192v-96h224v96zm0-128H288V160h128v128zm0-160H288V32h128v96z"/></svg>
